X:662
T:The Scotch Morris
C:John Young, c.1726
S:Colin Hume's website,  colinhume.com  - chords can also be printed below the stave.
Q:1/2=110
M:2/2
L:1/4
K:Am
P:A
|: "Am"EA- A^G/A/ | "Am"c2 "Dm"d2 | "E7"Be "Dm"(B/c/)(B/A/) | "E7"^GB- B2 |\
"Am"EA- A^G/A/ | "Am"c2 "Dm"d2 | "E7"Be "Dm"(B/c/)(B/A/) | "E7"^GE- E2 :|
P:B
|: "C"e(a/4g/4f/) ec | "G"d(g/4f/4e/) dB | "E7"Be "Am"cB/c/ | "E7"dB- B2 |\
| "C"e3/^f/ g/f/g/e/ | "D"^f/g/a/f/ "E7"^g2 | "Am"a2 "Dm"AB | "E7"^GE- E2 :|

